!!!!SEGMENT: pl-sa--230-a-vi-34--010_luna-georgius--litania-salus-infirmorum.krn
!!!cenid: 17xx:504
!!!COM: Luna, Georgius
!!!COM-rismid: pe41010079
!!!CDT:
!!!CNT:
!!!OPR: Litania
!!!OTL: Salus infirmorum
!!!OMV: 010
!!!PDT:
!!!AGN: Sacred; Mass
!!!SMS-siglum: PL-SA
!!!SMS-shelfmark: 230/A VI 34
!!!SMS-shelfwork: 001-010 M
!!!SMS-variant:
!!!SMS-altvar:
!!!NIFC-rismid: 1001070084
!!!URL-scan: http://bc.bdsandomierz.pl/dlibra/publication/1606/edition/1574/content
!!!ONB-nifc: UWAGA: części Litanii: Simphonia, Kirie, Pater de caelis, Sancta Maria, Mater Christi, Mater amabilis, Virgo prudentissima, Speculum, Rosa mistica, Salus infirmorum, Regina angelorum, Agnus Dei
!!!key:
**kern	**kern	**dynam	**kern	**dynam	**kern	**text	**kern	**text	**kern	**kern
*part7	*part6	*part6	*part5	*part5	*part4	*part4	*part3	*part3	*part2	*part1
*staff7	*staff6	*	*staff5	*	*staff4	*staff4	*staff3	*staff3	*staff2	*staff1
*Iempty	*Ivioln	*	*Ivioln	*	*Itenor	*	*Ivox	*	*Iempty	*Iempty
*I"Fundamenti	*I"Violino 2do.	*	*I"Violino 1mo.	*	*I"Tenore	*	*I"Canto	*	*I"Cornu ex F	*I"Cornu ex F
*I'Fundamenti	*I'Violino 2do.	*	*I'Violino 1mo.	*	*I'T.	*	*I'C.	*	*I'Cornu ex F	*I'Cornu ex F
*clefF4	*clefG2	*	*clefG2	*	*clefC4	*	*clefC1	*	*clefG2	*clefG2
*k[b-]	*k[b-]	*	*k[b-]	*	*k[b-]	*	*k[b-]	*	*k[b-]	*k[b-]
*d:	*d:	*	*d:	*	*d:	*	*d:	*	*d:	*d:
*M4/4	*M4/4	*	*M4/4	*	*M4/4	*	*M4/4	*	*M4/4	*M4/4
*met(C.)	*met(C.)	*	*met(C.)	*	*met(C.)	*	*met(C.)	*	*met(C.)	*met(C.)
=1	=1	=1	=1	=1	=1	=1	=1	=1	=1	=1
!	!	!	!LO:TX:a:i:t=adagio	!	!	!	!	!	!LO:TX:t=P:problem=Salus na pięciolinii	!LO:TX:t=P:problem=Tacet na pięciolinii
!LO:TX:a:t=P:problem=caudy z prawej strony&colon;global	!	!	!	!	!	!	!	!	!	!
!LO:TX:i:a:t=adagi(o)	!	!	!	!	!	!	!	!	!	!
!LO:TX:b:i:t=Salus	!LO:TX:b:i:t=Salus	!	!LO:TX:b:i:t=Salus	!	!LO:TX:a:t=P:problem=caudy z prawej strony&colon;global	!	!LO:TX:a:t=P:problem=caudy z prawej strony=global	!	!LO:TX:i:a:t=Tacet\nSalus	!LO:TX:i:a:t=Tacet
8D\L	16r	.	16r	.	4d\	Salus	4ff\	Sa-	1ryy	1ryy
!	!LO:TX:a:t=P:problem=caudy z prawej strony&colon;global	!	!LO:TX:a:t=P:problem=caudy z prawej strony&colon;global	!	!	!	!	!	!	!
.	(>16dd\LL	f	(>16ff\LL	.	.	.	.	.	.	.
8r	16cc#X\	.	16ee\	.	.	.	.	.	.	.
.	16dd\JJ)	.	16ff\JJ)	.	.	.	.	.	.	.
8D\J	16r	.	16r	.	4d\	in-	4ff\	-lus	.	.
.	(>16dd\LL	p	(>16ff\LL	p	.	.	.	.	.	.
8r	16cc#\	.	16ee\	.	.	.	.	.	.	.
.	16dd\JJ)	.	16ff\JJ)	.	.	.	.	.	.	.
8D\L	16r	.	16r	.	4d\	-fir-	4ff\	In-	.	.
!	!LO:LB:g=original	!	!	!	!	!	!	!	!	!
.	16dd\LL	f	(>16ff\LL	f	.	.	.	.	.	.
8r	16cc#X\	.	16ee\	.	.	.	.	.	.	.
.	16dd\JJ	.	16ff\JJ)	.	.	.	.	.	.	.
8D\J	16r	.	16r	.	4d\	.	4ff\	-fir-	.	.
.	16dd\LL	p	(>16ff\LL	p	.	.	.	.	.	.
8r	16cc#\	.	16ee\	.	.	.	.	.	.	.
.	16dd\JJ	.	16ff\JJ)	.	.	.	.	.	.	.
=2	=2	=2	=2	=2	=2	=2	=2	=2	=2	=2
8A\L	16r	.	16r	.	4c#X\	-moru(m)	4ee\	-mo-	1ryy	1ryy
!	!LO:SIC:s=16cc#	!	!	!	!	!	!	!	!	!
.	16cc\LL	f	(>16ee\LL	f	.	.	.	.	.	.
8r	16bn\	.	16dd\	.	.	.	.	.	.	.
.	16cc\JJ	.	16ee\JJ)	.	.	.	.	.	.	.
8A\J	16r	.	16r	.	4c#\	.	4ee\	-ru(m)	.	.
.	16cc\LL	p	(>16ee\LL	p	.	.	.	.	.	.
8r	16b\	.	16dd\	.	.	.	.	.	.	.
.	16cc\JJ	.	16ee\JJ)	.	.	.	.	.	.	.
8A\L	16r	.	16r	.	4e\	Re-	4gg\	.	.	.
.	16ee\LL	f	(>16gg\LL	f	.	.	.	.	.	.
8r	16dd\	.	16ff\	.	.	.	.	.	.	.
.	16ee\JJ	.	16gg\JJ)	.	.	.	.	.	.	.
8A\J	16r	.	16r	.	8e\	-fu-	8gg\	ora	.	.
.	16ee\LL	p	(>16gg\LL	p	.	.	.	.	.	.
8r	16dd\	.	16ff\	.	8e\	-gi-	8gg\	pro	.	.
.	16ee\JJ	.	16gg\JJ)	.	.	.	.	.	.	.
=3	=3	=3	=3	=3	=3	=3	=3	=3	=3	=3
8D\L	16r	.	16r	.	4d\	-u(m)	4ff\	no-	1ryy	1ryy
.	16dd\LL	f	(>16ff\LL	f	.	.	.	.	.	.
8r	16cc#X\	.	16ee\	.	.	.	.	.	.	.
.	16dd\JJ	.	16ff\JJ)	.	.	.	.	.	.	.
8D\J	16r	.	16r	.	4d\	.	4ff\	.	.	.
.	16dd\LL	p	(>16ff\LL	p	.	.	.	.	.	.
8r	16cc#\	.	16ee\	.	.	.	.	.	.	.
.	16dd\JJ	.	16ff\JJ)	.	.	.	.	.	.	.
8F\L	16r	.	16r	.	4A\	pec-	4ff\	-bis	.	.
.	16a/LL	f	(>16ff\LL	f	.	.	.	.	.	.
8r	16g/	.	16ee\	.	.	.	.	.	.	.
.	16a/JJ	.	16ff\JJ)	.	.	.	.	.	.	.
8F\J	16r	.	16r	.	8cn\	.	8ee-X\	Refu-	.	.
.	16cc#\LL	p	(>16ee-X\LL	p	.	.	.	.	.	.
8r	16b-\	.	16dd\	.	8c\	-ca-	8ee-\	-gi-	.	.
.	16cc#\JJ	.	16ee-\JJ)	.	.	.	.	.	.	.
=4	=4	=4	=4	=4	=4	=4	=4	=4	=4	=4
*	*	*	*	*	*2\right	*	*	*	*	*
8BB-/L	16r	.	16r	.	2B-X\	-to-	2dd\	-u(m)	1ryy	1ryy
.	16b-X\LL	f	(>16dd\LL	f	.	.	.	.	.	.
8r	16a\	.	16cc\	.	.	.	.	.	.	.
.	16b-\JJ	.	16dd\JJ)	.	.	.	.	.	.	.
!	!	!	!LO:LB:g=original	!	!	!	!	!	!	!
8BB-/J	16r	.	16r	.	.	.	.	.	.	.
.	16b-X\LL	p	(>16dd\LL	p	.	.	.	.	.	.
8r	16a\	.	16cc\	.	.	.	.	.	.	.
.	16b-\JJ	.	16dd\JJ)	.	.	.	.	.	.	.
8G\L	16r	.	16r	.	4Bn\	-rum	4gg\	Pec-	.	.
.	16b-\LL	f	(>16gg\LL	.	.	.	.	.	.	.
8r	16a\	.	16ff#X\	.	.	.	.	.	.	.
.	16b-\JJ	.	16gg\JJ)	.	.	.	.	.	.	.
!	!	!	!	!	!LO:SIC:t=znaczek wyglądający jak custos C:v	!	!	!	!	!
!	!	!	!	!	!LO:LB:g=original	!	!	!	!	!
8G\J	16r	.	16r	.	4d\	Con-	4ff\	-ca-	.	.
.	16dd\LL	p	(>16ffn\LL	p	.	.	.	.	.	.
8r	16cc\	.	16ee\	.	.	.	.	.	.	.
.	16dd\JJ	.	16ff\JJ)	.	.	.	.	.	.	.
!	!LO:LB:g=original	!	!	!	!	!	!	!	!	!
=5	=5	=5	=5	=5	=5	=5	=5	=5	=5	=5
8C/L	16r	.	16r	.	4c\	-so-	4ee\	-to-	1ryy	1ryy
.	16cc\LL	f	(>16ee\LL	f	.	.	.	.	.	.
8r	16bn\	.	16dd\	.	.	.	.	.	.	.
.	16cc\JJ	.	16ee\JJ)	.	.	.	.	.	.	.
8C/J	16r	.	16r	.	4c\	-la-	4ee\	-ru(m)	.	.
.	16cc\LL	p	(>16ee\LL	p	.	.	.	.	.	.
8r	16b\	.	16dd\	.	.	.	.	.	.	.
.	16cc\JJ	.	16ee\JJ)	.	.	.	.	.	.	.
8C/L	16r	.	16r	.	4F/	-trix	4ee\	Con-	.	.
.	16ee\LL	f	(>16gg\LL	f	.	.	.	.	.	.
8r	16dd\	.	16ff\	.	.	.	.	.	.	.
.	16ee\JJ	.	16gg\JJ)	.	.	.	.	.	.	.
8C/J	16r	.	16r	.	4G/	.	4ff\	-so-	.	.
.	16ff\LL	p	16aa\LL	p	.	.	.	.	.	.
8r	16ee\	.	16gg\	.	.	.	.	.	.	.
.	16ff\JJ	.	16aa\JJ	.	.	.	.	.	.	.
=6	=6	=6	=6	=6	=6	=6	=6	=6	=6	=6
8C/L	16r	.	16r	.	4B-X\	aff-	4gg\	-la-	1ryy	1ryy
.	16gg\LL	f	16bb-\LL	f	.	.	.	.	.	.
8r	16ff\	.	16aa\	.	.	.	.	.	.	.
.	16gg\JJ	.	16bb-\JJ	.	.	.	.	.	.	.
8C/J	16r	.	16r	.	4A\	-li-	4ff\	-tix	.	.
.	16ff\LL	p	(>16aa\LL	p	.	.	.	.	.	.
8r	16ee\	.	16gg\	.	.	.	.	.	.	.
.	16ff\JJ	.	16aa\JJ)	.	.	.	.	.	.	.
8C/L	16r	.	16r	.	4G/	-cto-	4ee\	aff-	.	.
.	16ee\LL	f	(>16gg\LL	f	.	.	.	.	.	.
8r	16dd\	.	16ff\	.	.	.	.	.	.	.
.	16ee\JJ	.	16gg\JJ)	.	.	.	.	.	.	.
8C/J	16r	.	16r	.	4A/	-rum	4ff\	-li-	.	.
.	16ff\LL	p	(>16aa\LL	p	.	.	.	.	.	.
8r	16ee\	.	16gg\	.	.	.	.	.	.	.
.	16ff\JJ	.	16aa\JJ)	.	.	.	.	.	.	.
!LO:LB:g=original	!	!	!	!	!	!	!	!	!	!
=7	=7	=7	=7	=7	=7	=7	=7	=7	=7	=7
8C/L	16r	.	16r	.	4B-X\	au-	4gg\	-cto-	1ryy	1ryy
.	16gg\LL	f	(>16bb-\LL	f	.	.	.	.	.	.
8r	16ff\	.	16aa\	.	.	.	.	.	.	.
.	16gg\JJ	.	16bb-\JJ)	.	.	.	.	.	.	.
8C/J	16r	.	16r	.	4A\	-xi-	4ff\	-ru(m)	.	.
.	16ff\LL	p	(>16aa\LL	p	.	.	.	.	.	.
8r	16ee\	.	16gg\	.	.	.	.	.	.	.
.	16ff\JJ	.	16aa\JJ)	.	.	.	.	.	.	.
8BBn/L	16r	.	16r	.	4d\	-li-	4ff\	au-	.	.
.	16ff\LL	f	(>16aa-X\LL	f	.	.	.	.	.	.
8r	16ee\	.	16gg\	.	.	.	.	.	.	.
.	16ff\JJ	.	16aa-\JJ)	.	.	.	.	.	.	.
8BB/J	16r	.	16r	.	8d\	-um	8ff\	-xi-	.	.
!	!	!	!LO:LB:g=original	!	!	!	!	!	!	!
.	16ff\LL	p	(>16aa-X\LL	p	.	.	.	.	.	.
8r	16ee\	.	16gg\	.	8d\	.	8ff\	-li-	.	.
.	16ff\JJ	.	16aa-\JJ)	.	.	.	.	.	.	.
!	!	!	!	!	!	!	!LO:LB:g=original	!	!	!
=8	=8	=8	=8	=8	=8	=8	=8	=8	=8	=8
8BB-/L	16r	.	16r	.	8d\	Chri-	8ff\	-u(m)	1ryy	1ryy
.	16ff\LL	f	(>16aa-X\LL	f	.	.	.	.	.	.
8r	16ee\	.	16gg\	.	8d\	.	8ff\	Chri-	.	.
.	16ff\JJ	.	16aa-\JJ)	.	.	.	.	.	.	.
8BB-/J	16r	.	16r	.	8d\	-stia-	8ff\	.	.	.
.	16ff\LL	p	(>16aa-\LL	p	.	.	.	.	.	.
8r	16ee\	.	16gg\	.	8d\	.	8ff\	-stia-	.	.
.	16ff\JJ	.	16aa-\JJ)	.	.	.	.	.	.	.
8C/L	16r	.	16r	.	8G/	-no-	8ee\	.	.	.
!	!LO:LB:g=original	!	!	!	!	!	!	!	!	!
.	16ee\LL	f	(>16gg\LL	f	.	.	.	.	.	.
8r	16dd\	.	16ff\	.	8G/	-ru(m)	8ee\	-no-	.	.
.	16ee\JJ	.	16gg\JJ)	.	.	.	.	.	.	.
8C/J	16r	.	16r	.	4G/	o-	4ee\	-rum	.	.
.	16ee\LL	p	(>16gg\LL	p	.	.	.	.	.	.
8r	16dd\	.	16ff\	.	.	.	.	.	.	.
.	16ee\JJ	.	16gg\JJ)	.	.	.	.	.	.	.
=9	=9	=9	=9	=9	=9	=9	=9	=9	=9	=9
8F\L	16r	.	16r	.	8A/	-ra	8ff\	ora	1ryy	1ryy
.	16ff\LL	f	(>16aan\LL	f	.	.	.	.	.	.
8r	16ee\	.	16gg\	.	8A/	pro-	8ff\	pro	.	.
.	16ff\JJ	.	16aa\JJ)	.	.	.	.	.	.	.
8C\J	16r	.	16r	.	4G/	-no-	4ee\	no-	.	.
.	16ee\LL	p	(>16gg\LL	p	.	.	.	.	.	.
8r	16dd\	.	16ff\	.	.	.	.	.	.	.
.	16ee\JJ	.	16gg\JJ)	.	.	.	.	.	.	.
8F\L	16r	.	16r	.	4A/	-bis	4ff\	-bis	.	.
.	16ff\LL	f	(>16aa\LL	f	.	.	.	.	.	.
8r	16ee\	.	16gg\	.	.	.	.	.	.	.
.	16ff\JJ	.	16aa\JJ)	.	.	.	.	.	.	.
8F\J	16r	.	16r	.	4r	.	4r	.	.	.
.	16f/LL	p	16a/LL	p	.	.	.	.	.	.
8r	16e/	.	16g/	.	.	.	.	.	.	.
.	16f/JJ	.	16a/JJ	.	.	.	.	.	.	.
!	!	!	!	!	!LO:LB:g=original	!	!	!	!	!
=10	=10	=10	=10	=10	=10	=10	=10	=10	=10	=10
8C/L	16r	.	16r	.	1r	.	1r	.	1ryy	1ryy
.	16e/LL	f	(<16g/LL	f	.	.	.	.	.	.
8r	16d/	.	16f/	.	.	.	.	.	.	.
.	16e/JJ	.	16g/JJ)	.	.	.	.	.	.	.
8C/J	16r	.	16r	.	.	.	.	.	.	.
.	16e/LL	.	(<16g/LL	.	.	.	.	.	.	.
8r	16d/	.	16f/	.	.	.	.	.	.	.
.	16e/JJ	.	16g/JJ)	.	.	.	.	.	.	.
4FF/	4f/	.	4a/	.	.	.	.	.	.	.
!	!LO:TX:a:t=10	!	!	!	!	!	!	!	!	!
4r	4r	.	4r	.	.	.	.	.	.	.
==	==	==	==	==	==	==	==	==	==	==
*-	*-	*-	*-	*-	*-	*-	*-	*-	*-	*-
!!!system-decoration: s1,s2[(s3,s4)][(s5,s6,s7)]
!!!RDF**kern: > = above
!!!RDF**kern: < = below
!!!RDF**dynam: p = "pia:"
!!!RDF**dynam: f = "for"
!!!EED: Mateusz Mrugas
!!!EST: 2020-10-24
!!!AIN: 3 empty 1 tenor 2 violn 1 vox
!!!ENC: Anastazja Marusiak
!!!END: 2020-05-27
